img/account/account-timer-icon.svg

<svg height="51" viewBox="0 0 43 51" width="43" xmlns="http://www.w3.org/2000/svg" xmlns:xlink="http://www.w3.org/1999/xlink"><mask id="a" fill="#fff"><path d="m0 0h42.9456913v50.999944h-42.9456913z" fill="#fff" fill-rule="evenodd"/></mask><g fill="#ff5722" fill-rule="evenodd"><path d="m6.28926352 14.5945747c-4.05565617 4.0279912-6.28928609 9.3833275-6.28928609 15.0796352s2.23362992 11.0516439 6.28928609 15.0796352c4.05576898 4.027767 9.44792388 6.2460989 15.18362728 6.2460989 5.7355906 0 11.1278583-2.2183319 15.1836273-6.2460989 4.0555433-4.0279913 6.2891732-9.3833275 6.2891732-15.0796352 0-5.0788154-1.7769947-9.8855934-5.0364173-13.7231473l3.2010735-4.4151428-3.6473255-2.60817365-2.8244566 3.89572745c-3.0750079-2.3796263-6.7126273-3.86512745-10.5856746-4.32278239v-4.03718242h8.2396352v-4.46356483h-22.47161944v4.46356483h8.23963514v4.15263297c-4.4389317.69998901-8.53171913 2.76117364-11.77127818 5.97843294m15.18362728-2.1131934c9.5455486 0 17.3112809 7.7126572 17.3112809 17.1928286 0 9.4802835-7.7657323 17.1928286-17.3112809 17.1928286-9.5455485 0-17.31150655-7.7125451-17.31150655-17.1928286 0-9.4801714 7.76595805-17.1928286 17.31150655-17.1928286" mask="url(#a)"/><path d="m21.7598989 33c2.0766462 0 3.7601255-1.6463734 3.7601255-3.6773844 0-1.2031148 5.4799756-9.3226156 5.4799756-9.3226156s-8.3936026 5.6453419-9.2401011 5.6453419c-2.0765329 0-3.7598989 1.6463734-3.7598989 3.6772737 0 2.031011 1.683366 3.6773844 3.7598989 3.6773844"/></g></svg>

<?xml version="1.0" encoding="UTF-8"?>
<svg width="43px" height="51px" viewBox="0 0 43 51" version="1.1" xmlns="http://www.w3.org/2000/svg" xmlns:xlink="http://www.w3.org/1999/xlink">
    <!-- Generator: Sketch 51.3 (57544) - http://www.bohemiancoding.com/sketch -->
    <title>account-timer-icon</title>
    <desc>Created with Sketch.</desc>
    <defs>
        <polygon id="path-1" points="0 0 42.9456913 0 42.9456913 50.999944 0 50.999944"></polygon>
    </defs>
    <g id="FAQs-&amp;-Account" stroke="none" stroke-width="1" fill="none" fill-rule="evenodd">
        <g id="TT-Account" transform="translate(-539.000000, -477.000000)">
            <g id="account-timer-icon" transform="translate(539.000000, 477.000000)">
                <g id="Group-3">
                    <mask id="mask-2" fill="white">
                        <use xlink:href="#path-1"></use>
                    </mask>
                    <g id="Clip-2"></g>
                    <path d="M6.28926352,14.5945747 C2.23360735,18.6225659 -2.25721785e-05,23.9779022 -2.25721785e-05,29.6742099 C-2.25721785e-05,35.3705176 2.23360735,40.7258538 6.28926352,44.7538451 C10.3450325,48.7816121 15.7371874,50.999944 21.4728908,50.999944 C27.2084814,50.999944 32.6007491,48.7816121 36.6565181,44.7538451 C40.7120614,40.7258538 42.9456913,35.3705176 42.9456913,29.6742099 C42.9456913,24.5953945 41.1686966,19.7886165 37.909274,15.9510626 L41.1103475,11.5359198 L37.463022,8.92774615 L34.6385654,12.8234736 C31.5635575,10.4438473 27.9259381,8.95834615 24.0528908,8.50069121 L24.0528908,4.46350879 L32.292526,4.46350879 L32.292526,-5.6043956e-05 L9.82090656,-5.6043956e-05 L9.82090656,4.46350879 L18.0605417,4.46350879 L18.0605417,8.61614176 C13.62161,9.31613077 9.52882257,11.3773154 6.28926352,14.5945747 M21.4728908,12.4813813 C31.0184394,12.4813813 38.7841717,20.1940385 38.7841717,29.6742099 C38.7841717,39.1544934 31.0184394,46.8670385 21.4728908,46.8670385 C11.9273423,46.8670385 4.16138425,39.1544934 4.16138425,29.6742099 C4.16138425,20.1940385 11.9273423,12.4813813 21.4728908,12.4813813" id="Fill-1" fill="#FF5722" mask="url(#mask-2)"></path>
                </g>
                <path d="M21.7598989,33 C23.8365451,33 25.5200244,31.3536266 25.5200244,29.3226156 C25.5200244,28.1195008 31,20 31,20 C31,20 22.6063974,25.6453419 21.7598989,25.6453419 C19.683366,25.6453419 18,27.2917153 18,29.3226156 C18,31.3536266 19.683366,33 21.7598989,33" id="Fill-4" fill="#FF5722"></path>
            </g>
        </g>
    </g>
</svg>
